images/icon-menu-home.svg

<svg width="30" height="27" viewBox="0 0 30 27" fill="none" xmlns="http://www.w3.org/2000/svg">
<path d="M14.8753 0L22.8086 4.32V2.16H25.0753V5.4L29.6087 7.56L29.6089 9.72L14.8753 2.16L0.000134026 9.72L0 7.56L14.8753 0Z" fill="#C4C4C4"/>
<path d="M2.40826 9.72L14.8752 4.32L27.3421 9.72L22.8086 27H18.8419V15.12H10.9084V27H6.94168L2.40826 9.72Z" fill="#C4C4C4"/>
</svg>

<svg width="30" height="27" fill="none" xmlns="http://www.w3.org/2000/svg"><path d="M14.875 0l7.934 4.32V2.16h2.266V5.4l4.534 2.16v2.16L14.875 2.16 0 9.72V7.56L14.875 0z" fill="#C4C4C4"/><path d="M2.408 9.72l12.467-5.4 12.467 5.4L22.81 27h-3.967V15.12h-7.934V27H6.942L2.408 9.72z" fill="#C4C4C4"/></svg>
